src/assets/oooscillate-green.svg

<?xml version="1.0" encoding="UTF-8"?>
<svg xmlns="http://www.w3.org/2000/svg" xmlns:svgjs="http://svgjs.dev/svgjs" version="1.1" viewBox="0 0 1422 800">
  <defs>
    <style>
      .cls-1 {
        fill: none;
        stroke: #a4f236;
        stroke-linecap: round;
        stroke-width: 2.5px;
      }
    </style>
  </defs>
  <!-- Generator: Adobe Illustrator 28.7.1, SVG Export Plug-In . SVG Version: 1.2.0 Build 142)  -->
  <g>
    <g id="Layer_1">
      <g>
        <path class="cls-1" d="M0-2160C237-170,474,683.3,711,400c237-283.3,474-1136.7,711-2560"/>
        <path class="cls-1" d="M0-2124C237-158,474,683.3,711,400c237-283.3,474-1124.7,711-2524"/>
        <path class="cls-1" d="M0-2088C237-146,474,683.3,711,400c237-283.3,474-1112.7,711-2488"/>
        <path class="cls-1" d="M0-2052C237-134,474,683.3,711,400c237-283.3,474-1100.7,711-2452"/>
        <path class="cls-1" d="M0-2016C237-122,474,683.3,711,400c237-283.3,474-1088.7,711-2416"/>
        <path class="cls-1" d="M0-1980C237-110,474,683.3,711,400c237-283.3,474-1076.7,711-2380"/>
        <path class="cls-1" d="M0-1944C237-98,474,683.3,711,400c237-283.3,474-1064.7,711-2344"/>
        <path class="cls-1" d="M0-1908C237-86,474,683.3,711,400c237-283.3,474-1052.7,711-2308"/>
        <path class="cls-1" d="M0-1872C237-74,474,683.3,711,400c237-283.3,474-1040.7,711-2272"/>
        <path class="cls-1" d="M0-1836C237-62,474,683.3,711,400c237-283.3,474-1028.7,711-2236"/>
        <path class="cls-1" d="M0-1800C237-50,474,683.3,711,400c237-283.3,474-1016.7,711-2200"/>
        <path class="cls-1" d="M0-1764C237-38,474,683.3,711,400c237-283.3,474-1004.7,711-2164"/>
        <path class="cls-1" d="M0-1728C237-26,474,683.3,711,400c237-283.3,474-992.7,711-2128"/>
        <path class="cls-1" d="M0-1692C237-14,474,683.3,711,400c237-283.3,474-980.7,711-2092"/>
        <path class="cls-1" d="M0-1656C237-2,474,683.3,711,400c237-283.3,474-968.7,711-2056"/>
        <path class="cls-1" d="M0-1620C237,10,474,683.3,711,400c237-283.3,474-956.7,711-2020"/>
        <path class="cls-1" d="M0-1584C237,22,474,683.3,711,400c237-283.3,474-944.7,711-1984"/>
        <path class="cls-1" d="M0-1548C237,34,474,683.3,711,400c237-283.3,474-932.7,711-1948"/>
        <path class="cls-1" d="M0-1512C237,46,474,683.3,711,400c237-283.3,474-920.7,711-1912"/>
        <path class="cls-1" d="M0-1476C237,58,474,683.3,711,400c237-283.3,474-908.7,711-1876"/>
        <path class="cls-1" d="M0-1440C237,70,474,683.3,711,400c237-283.3,474-896.7,711-1840"/>
        <path class="cls-1" d="M0-1404C237,82,474,683.3,711,400c237-283.3,474-884.7,711-1804"/>
        <path class="cls-1" d="M0-1368C237,94,474,683.3,711,400c237-283.3,474-872.7,711-1768"/>
        <path class="cls-1" d="M0-1332C237,106,474,683.3,711,400c237-283.3,474-860.7,711-1732"/>
        <path class="cls-1" d="M0-1296C237,118,474,683.3,711,400c237-283.3,474-848.7,711-1696"/>
        <path class="cls-1" d="M0-1260C237,130,474,683.3,711,400c237-283.3,474-836.7,711-1660"/>
        <path class="cls-1" d="M0-1224C237,142,474,683.3,711,400c237-283.3,474-824.7,711-1624"/>
        <path class="cls-1" d="M0-1188C237,154,474,683.3,711,400c237-283.3,474-812.7,711-1588"/>
        <path class="cls-1" d="M0-1152C237,166,474,683.3,711,400c237-283.3,474-800.7,711-1552"/>
        <path class="cls-1" d="M0-1116C237,178,474,683.3,711,400c237-283.3,474-788.7,711-1516"/>
        <path class="cls-1" d="M0-1080C237,190,474,683.3,711,400c237-283.3,474-776.7,711-1480"/>
        <path class="cls-1" d="M0-1044C237,202,474,683.3,711,400c237-283.3,474-764.7,711-1444"/>
        <path class="cls-1" d="M0-1008C237,214,474,683.3,711,400c237-283.3,474-752.7,711-1408"/>
        <path class="cls-1" d="M0-972C237,226,474,683.3,711,400c237-283.3,474-740.7,711-1372"/>
        <path class="cls-1" d="M0-936C237,238,474,683.3,711,400c237-283.3,474-728.7,711-1336"/>
        <path class="cls-1" d="M0-900C237,250,474,683.3,711,400c237-283.3,474-716.7,711-1300"/>
        <path class="cls-1" d="M0-864C237,262,474,683.3,711,400c237-283.3,474-704.7,711-1264"/>
        <path class="cls-1" d="M0-828C237,274,474,683.3,711,400c237-283.3,474-692.7,711-1228"/>
        <path class="cls-1" d="M0-792C237,286,474,683.3,711,400c237-283.3,474-680.7,711-1192"/>
        <path class="cls-1" d="M0-756C237,298,474,683.3,711,400c237-283.3,474-668.7,711-1156"/>
        <path class="cls-1" d="M0-720C237,310,474,683.3,711,400c237-283.3,474-656.7,711-1120"/>
        <path class="cls-1" d="M0-684C237,322,474,683.3,711,400c237-283.3,474-644.7,711-1084"/>
        <path class="cls-1" d="M0-648C237,334,474,683.3,711,400c237-283.3,474-632.7,711-1048"/>
        <path class="cls-1" d="M0-612C237,346,474,683.3,711,400c237-283.3,474-620.7,711-1012"/>
        <path class="cls-1" d="M0-576C237,358,474,683.3,711,400c237-283.3,474-608.7,711-976"/>
        <path class="cls-1" d="M0-540C237,370,474,683.3,711,400c237-283.3,474-596.7,711-940"/>
        <path class="cls-1" d="M0-504C237,382,474,683.3,711,400c237-283.3,474-584.7,711-904"/>
        <path class="cls-1" d="M0-468C237,394,474,683.3,711,400c237-283.3,474-572.7,711-868"/>
        <path class="cls-1" d="M0-432C237,406,474,683.3,711,400c237-283.3,474-560.7,711-832"/>
        <path class="cls-1" d="M0-396C237,418,474,683.3,711,400c237-283.3,474-548.7,711-796"/>
        <path class="cls-1" d="M0-360C237,430,474,683.3,711,400c237-283.3,474-536.7,711-760"/>
        <path class="cls-1" d="M0-324C237,442,474,683.3,711,400,948,116.7,1185-124.7,1422-324"/>
        <path class="cls-1" d="M0-288C237,454,474,683.3,711,400,948,116.7,1185-112.7,1422-288"/>
        <path class="cls-1" d="M0-252C237,466,474,683.3,711,400,948,116.7,1185-100.7,1422-252"/>
        <path class="cls-1" d="M0-216C237,478,474,683.3,711,400,948,116.7,1185-88.7,1422-216"/>
        <path class="cls-1" d="M0-180C237,490,474,683.3,711,400,948,116.7,1185-76.7,1422-180"/>
        <path class="cls-1" d="M0-144C237,502,474,683.3,711,400,948,116.7,1185-64.7,1422-144"/>
        <path class="cls-1" d="M0-108c237,622,474,791.3,711,508C948,116.7,1185-52.7,1422-108"/>
        <path class="cls-1" d="M0-72c237,598,474,755.3,711,472C948,116.7,1185-40.7,1422-72"/>
      </g>
    </g>
  </g>
</svg>

<svg xmlns="http://www.w3.org/2000/svg" version="1.1" xmlns:xlink="http://www.w3.org/1999/xlink" xmlns:svgjs="http://svgjs.dev/svgjs" viewBox="0 0 1422 800"><g stroke-width="2.5" stroke="#a4f236" fill="none" stroke-linecap="round"><path d="M 0 -2160 Q 355.5 -25 711 400 Q 1066.5 825 1422 -2160"></path><path d="M 0 -2124 Q 355.5 -25 711 400 Q 1066.5 825 1422 -2124"></path><path d="M 0 -2088 Q 355.5 -25 711 400 Q 1066.5 825 1422 -2088"></path><path d="M 0 -2052 Q 355.5 -25 711 400 Q 1066.5 825 1422 -2052"></path><path d="M 0 -2016 Q 355.5 -25 711 400 Q 1066.5 825 1422 -2016"></path><path d="M 0 -1980 Q 355.5 -25 711 400 Q 1066.5 825 1422 -1980"></path><path d="M 0 -1944 Q 355.5 -25 711 400 Q 1066.5 825 1422 -1944"></path><path d="M 0 -1908 Q 355.5 -25 711 400 Q 1066.5 825 1422 -1908"></path><path d="M 0 -1872 Q 355.5 -25 711 400 Q 1066.5 825 1422 -1872"></path><path d="M 0 -1836 Q 355.5 -25 711 400 Q 1066.5 825 1422 -1836"></path><path d="M 0 -1800 Q 355.5 -25 711 400 Q 1066.5 825 1422 -1800"></path><path d="M 0 -1764 Q 355.5 -25 711 400 Q 1066.5 825 1422 -1764"></path><path d="M 0 -1728 Q 355.5 -25 711 400 Q 1066.5 825 1422 -1728"></path><path d="M 0 -1692 Q 355.5 -25 711 400 Q 1066.5 825 1422 -1692"></path><path d="M 0 -1656 Q 355.5 -25 711 400 Q 1066.5 825 1422 -1656"></path><path d="M 0 -1620 Q 355.5 -25 711 400 Q 1066.5 825 1422 -1620"></path><path d="M 0 -1584 Q 355.5 -25 711 400 Q 1066.5 825 1422 -1584"></path><path d="M 0 -1548 Q 355.5 -25 711 400 Q 1066.5 825 1422 -1548"></path><path d="M 0 -1512 Q 355.5 -25 711 400 Q 1066.5 825 1422 -1512"></path><path d="M 0 -1476 Q 355.5 -25 711 400 Q 1066.5 825 1422 -1476"></path><path d="M 0 -1440 Q 355.5 -25 711 400 Q 1066.5 825 1422 -1440"></path><path d="M 0 -1404 Q 355.5 -25 711 400 Q 1066.5 825 1422 -1404"></path><path d="M 0 -1368 Q 355.5 -25 711 400 Q 1066.5 825 1422 -1368"></path><path d="M 0 -1332 Q 355.5 -25 711 400 Q 1066.5 825 1422 -1332"></path><path d="M 0 -1296 Q 355.5 -25 711 400 Q 1066.5 825 1422 -1296"></path><path d="M 0 -1260 Q 355.5 -25 711 400 Q 1066.5 825 1422 -1260"></path><path d="M 0 -1224 Q 355.5 -25 711 400 Q 1066.5 825 1422 -1224"></path><path d="M 0 -1188 Q 355.5 -25 711 400 Q 1066.5 825 1422 -1188"></path><path d="M 0 -1152 Q 355.5 -25 711 400 Q 1066.5 825 1422 -1152"></path><path d="M 0 -1116 Q 355.5 -25 711 400 Q 1066.5 825 1422 -1116"></path><path d="M 0 -1080 Q 355.5 -25 711 400 Q 1066.5 825 1422 -1080"></path><path d="M 0 -1044 Q 355.5 -25 711 400 Q 1066.5 825 1422 -1044"></path><path d="M 0 -1008 Q 355.5 -25 711 400 Q 1066.5 825 1422 -1008"></path><path d="M 0 -972 Q 355.5 -25 711 400 Q 1066.5 825 1422 -972"></path><path d="M 0 -936 Q 355.5 -25 711 400 Q 1066.5 825 1422 -936"></path><path d="M 0 -900 Q 355.5 -25 711 400 Q 1066.5 825 1422 -900"></path><path d="M 0 -864 Q 355.5 -25 711 400 Q 1066.5 825 1422 -864"></path><path d="M 0 -828 Q 355.5 -25 711 400 Q 1066.5 825 1422 -828"></path><path d="M 0 -792 Q 355.5 -25 711 400 Q 1066.5 825 1422 -792"></path><path d="M 0 -756 Q 355.5 -25 711 400 Q 1066.5 825 1422 -756"></path><path d="M 0 -720 Q 355.5 -25 711 400 Q 1066.5 825 1422 -720"></path><path d="M 0 -684 Q 355.5 -25 711 400 Q 1066.5 825 1422 -684"></path><path d="M 0 -648 Q 355.5 -25 711 400 Q 1066.5 825 1422 -648"></path><path d="M 0 -612 Q 355.5 -25 711 400 Q 1066.5 825 1422 -612"></path><path d="M 0 -576 Q 355.5 -25 711 400 Q 1066.5 825 1422 -576"></path><path d="M 0 -540 Q 355.5 -25 711 400 Q 1066.5 825 1422 -540"></path><path d="M 0 -504 Q 355.5 -25 711 400 Q 1066.5 825 1422 -504"></path><path d="M 0 -468 Q 355.5 -25 711 400 Q 1066.5 825 1422 -468"></path><path d="M 0 -432 Q 355.5 -25 711 400 Q 1066.5 825 1422 -432"></path><path d="M 0 -396 Q 355.5 -25 711 400 Q 1066.5 825 1422 -396"></path><path d="M 0 -360 Q 355.5 -25 711 400 Q 1066.5 825 1422 -360"></path><path d="M 0 -324 Q 355.5 -25 711 400 Q 1066.5 825 1422 -324"></path><path d="M 0 -288 Q 355.5 -25 711 400 Q 1066.5 825 1422 -288"></path><path d="M 0 -252 Q 355.5 -25 711 400 Q 1066.5 825 1422 -252"></path><path d="M 0 -216 Q 355.5 -25 711 400 Q 1066.5 825 1422 -216"></path><path d="M 0 -180 Q 355.5 -25 711 400 Q 1066.5 825 1422 -180"></path><path d="M 0 -144 Q 355.5 -25 711 400 Q 1066.5 825 1422 -144"></path><path d="M 0 -108 Q 355.5 -25 711 400 Q 1066.5 825 1422 -108"></path><path d="M 0 -72 Q 355.5 -25 711 400 Q 1066.5 825 1422 -72"></path></g></svg>
